X: 925
T: Gül Kuruttum
C: (Anonim)
O: Turkey
F: http://compmusic.upf.edu/node/140
N: hicazkar--turku--tekvurus--gul_kuruttum--hatay
N: makam= hicazkar
N: form= turku
N: usul= tekvurus = 11/8
M: 11/8
L: 1/16
K: C _1/4B _7/8e _7/8A ^f
Q: 1/4=102
%%MIDI tuningsystem comma53
e2ee e2ed c2de gfed cBcd _1/4e2 | \
w:  ARANAĞME  | 
d2 c2B2 cBA2 GABc BAGF G4  | 
w:   | 
e2ee e2ed c2de gfed cBcd _1/4e2 | \
w:  ARANAĞME  | 
d2 c2B2 cBA2 GABc BAGF G4  | 
w:   | 
z2d/g/g g2g4a2 g2f2 gf_1/4e{f}e {f}ef | \
w:  Gül  *  ku rut tum  gül  *  ku rut *  tum    | 
d2 _1/4e2f2 g4 a2g2 f2gf e{f}e{f}ed  | 
w:  Gül  ku rut tum  gül  *  ku rut *  tum    | 
d2d2 d2ed c2de gfed cBcd _1/4e2 | \
w:  Yâ ri  sî nem *  *  de  *  *  *  u *  yut *  tum    | 
d2 c2B2 cBA2 GABc BAGF G4  | 
w:  Yâ ri  sî nem *  *  de  *  *  *  u *  yut *  tum    | 
g2g2 g2g4a2 g2f2 gf_1/4e{f}e {f}ef | \
w:  Yâr  söy le di  ben  *  u nut *  tum    | 
d2 _1/4e2f2 g4 a2g2 f2gf e{f}e{f}ed  | 
w:  Yâr  söy le di  ben  *  u nut *  tum    | 
e2ee e2ed c2de gfed cBcd _1/4e2 | \
w:  Ah  a ka bin de  *  *  düş *  *  *  tü  *  gö *  nül    | 
d2 c2B2 cBA2 GABc BAGF G4  | 
w:  Yâr dan  ay rıl *  *  ma *  *  *  sı  *  müş *  kül    | 
e2ee e2ed c2de gfed cBcd _1/4e2 | \
w:  Ah  a ka bin de  *  *  düş *  *  *  tü  *  gö *  nül    | 
d2 c2B2 cBA2 GABc BAGF G4  | 
w:  Yâr dan  ay rıl *  *  ma *  *  *  sı  *  müş *  kül    | 
e2ee e2ed c2de gfed cBcd _1/4e2 | \
w:  ARANAĞME  | 
d2 c2B2 cBA2 GABc BAGF G4  | 
w:   | 
e2ee e2ed c2de gfed cBcd _1/4e2 | \
w:  ARANAĞME  | 
d2 c2B2 cBA2 GABc BAGF G4  | 
w:   | 
z2d/g/g g2g4a2 g2f2 gf_1/4e{f}e {f}ef | \
w:  Gül  *  ku rut tum  gül  *  ku rut *  tum    | 
d2 _1/4e2f2 g4 a2g2 f2gf e{f}e{f}ed  | 
w:  Gül  ku rut tum  gül  *  ku rut *  tum    | 
d2d2 d2ed c2de gfed cBcd _1/4e2 | \
w:  Yâ ri  sî nem *  *  de  *  *  *  u *  yut *  tum    | 
d2 c2B2 cBA2 GABc BAGF G4  | 
w:  Yâ ri  sî nem *  *  de  *  *  *  u *  yut *  tum    | 
g2g2 g2g4a2 g2f2 gf_1/4e{f}e {f}ef | \
w:  Yâr  söy le di  ben  *  u nut *  tum    | 
d2 _1/4e2f2 g4 a2g2 f2gf e{f}e{f}ed  | 
w:  Yâr  söy le di  ben  *  u nut *  tum    | 
e2ee e2ed c2de gfed cBcd _1/4e2 | \
w:  Ah  a ka bin de  *  *  düş *  *  *  tü  *  gö *  nül    | 
d2 c2B2 cBA2 GABc BAGF G4  | 
w:  Yâr dan  ay rıl *  *  ma *  *  *  sı  *  müş *  kül    | 
e2ee e2ed c2de gfed cBcd _1/4e2 | \
w:  Ah  a ka bin de  *  *  düş *  *  *  tü  *  gö *  nül    | 
d2 c2B2 cBA2 GABc BAGF G4  | 
w:  Yâr dan  ay rıl *  *  ma *  *  *  sı  *  müş *  kül    | 
|


